icons/4_Outdated/Hostwinds v1.svg

<svg width="1024" height="1024" viewBox="0 0 1024 1024" fill="none" xmlns="http://www.w3.org/2000/svg">
<g clip-path="url(#clip0_3_572)">
<path d="M512 1024C794.77 1024 1024 794.77 1024 512C1024 229.23 794.77 0 512 0C229.23 0 0 229.23 0 512C0 794.77 229.23 1024 512 1024Z" fill="#9ABEFF"/>
<path d="M450.2 434.998C457.7 394.798 469.8 352.598 469.8 352.598C487.9 287.798 539.7 274.198 539.7 274.198C590 257.098 619.6 291.298 619.6 291.298V291.798C622.1 294.798 623.1 297.798 623.1 297.798C624.6 299.298 625.1 301.798 625.1 304.298C625.1 311.298 621.1 316.898 615.5 319.898H615C575.3 337.998 547.1 369.698 547.1 369.698C476.7 447.598 442.5 586.398 442.5 586.398C442.5 586.398 408.5 729.998 317.5 705.398C317.5 705.398 260.2 691.298 245.1 607.898C241.6 585.798 247.6 580.798 247.6 580.798C257.2 573.298 268.2 586.798 268.2 586.798C296.4 620.998 333 617.998 333 617.998C337.5 617.998 388.3 617.498 429 511.398C429.1 511.898 442.7 478.698 450.2 434.998ZM707.6 531.998C634.2 519.898 533.7 724.498 533.7 724.498C527.2 736.598 520.1 734.098 520.1 734.098C512.1 732.598 515.6 720.498 515.6 720.498C515.6 720.498 570.4 487.798 683.5 468.698C683.5 468.698 747.8 458.598 752.9 529.998C752.9 529.998 752.9 551.598 732.3 542.598C732.2 543.098 719.1 533.998 707.6 531.998ZM768.4 394.798C716.6 325.398 641.7 350.598 641.7 350.598C489.9 398.298 445.2 728.998 445.2 728.998C445.2 728.998 442.7 746.098 453.7 746.598C453.7 746.598 463.8 748.098 470.3 730.998C470.3 730.998 533.6 436.898 680.9 427.398C680.9 427.398 718.6 424.398 753.3 440.498C753.3 440.498 764.4 446.998 773.4 438.498C773.4 438.498 785.5 427.398 776.9 409.798C776.9 409.798 773.9 404.298 768.9 395.198L768.4 394.798Z" fill="white"/>
</g>
<defs>
<clipPath id="clip0_3_572">
<rect width="1024" height="1024" fill="white"/>
</clipPath>
</defs>
</svg>

<svg xmlns="http://www.w3.org/2000/svg" viewBox="0 0 1024 1024">
   <circle cx="512" cy="512" r="512" style="fill:#0098d0"/>
   <path d="M450.2 435c7.5-40.2 19.6-82.4 19.6-82.4 18.1-64.8 69.9-78.4 69.9-78.4 50.3-17.1 79.9 17.1 79.9 17.1v.5c2.5 3 3.5 6 3.5 6 1.5 1.5 2 4 2 6.5 0 7-4 12.6-9.6 15.6h-.5c-39.7 18.1-67.9 49.8-67.9 49.8-70.4 77.9-104.6 216.7-104.6 216.7s-34 143.6-125 119c0 0-57.3-14.1-72.4-97.5-3.5-22.1 2.5-27.1 2.5-27.1 9.6-7.5 20.6 6 20.6 6C296.4 621 333 618 333 618c4.5 0 55.3-.5 96-106.6.1.5 13.7-32.7 21.2-76.4zm257.4 97c-73.4-12.1-173.9 192.5-173.9 192.5-6.5 12.1-13.6 9.6-13.6 9.6-8-1.5-4.5-13.6-4.5-13.6s54.8-232.7 167.9-251.8c0 0 64.3-10.1 69.4 61.3 0 0 0 21.6-20.6 12.6-.1.5-13.2-8.6-24.7-10.6zm60.8-137.2c-51.8-69.4-126.7-44.2-126.7-44.2C489.9 398.3 445.2 729 445.2 729s-2.5 17.1 8.5 17.6c0 0 10.1 1.5 16.6-15.6 0 0 63.3-294.1 210.6-303.6 0 0 37.7-3 72.4 13.1 0 0 11.1 6.5 20.1-2 0 0 12.1-11.1 3.5-28.7 0 0-3-5.5-8-14.6l-.5-.4z" style="fill:#fff"/>
</svg>
